X: 4
T: The Templehouse
R: reel
M: 4/4
L: 1/8
K: Edor
|:EFGA BEGE|D2F (3FED ADFD|EFGA B~d3|dBAc BEED|
|"1"EFGA BEGE |D2 (3FED AD (3FED|EFGA BE (3EEE |dBAc BEE2:|
|: gfef g2eg|f~d3 dfaf|gfef gf~g2|BdAc BE~E2|
"2"gfef g2eg|~f3g afd2|"3"f~b3 afed |BdAc BEED :|
P:Variations
"1"|EFGA B~F3 |"2" gbef gbef |"3" fbba fafd |


Tune 827	Setting 13978

